src/assets/img/mod/bigbluebuttonbn.svg

<?xml version="1.0" encoding="UTF-8" standalone="no"?>
<svg xmlns:dc="http://purl.org/dc/elements/1.1/" xmlns:cc="http://creativecommons.org/ns#" xmlns:rdf="http://www.w3.org/1999/02/22-rdf-syntax-ns#" xmlns:svg="http://www.w3.org/2000/svg" xmlns="http://www.w3.org/2000/svg" xmlns:sodipodi="http://sodipodi.sourceforge.net/DTD/sodipodi-0.dtd" xmlns:inkscape="http://www.inkscape.org/namespaces/inkscape" style="fill:none" id="svg4" version="1.1" viewBox="0 0 74 74" height="74" width="74" sodipodi:docname="icon.svg" inkscape:version="0.92.5 (2060ec1f9f, 2020-04-08)">
  <sodipodi:namedview pagecolor="#ffffff" bordercolor="#666666" borderopacity="1" objecttolerance="10" gridtolerance="10" guidetolerance="10" inkscape:pageopacity="0" inkscape:pageshadow="2" inkscape:window-width="3768" inkscape:window-height="2096" id="namedview6" showgrid="false" inkscape:zoom="6.9532167" inkscape:cx="33.858158" inkscape:cy="40.191094" inkscape:window-x="72" inkscape:window-y="27" inkscape:window-maximized="1" inkscape:current-layer="svg4"/>
  <metadata id="metadata10">
    <rdf:RDF>
      <cc:Work rdf:about="">
        <dc:format>image/svg+xml</dc:format>
        <dc:type rdf:resource="http://purl.org/dc/dcmitype/StillImage"/>
        <dc:title/>
      </cc:Work>
    </rdf:RDF>
  </metadata>
  <defs id="defs8"/>
  <path style="clip-rule:evenodd;fill:#000000;fill-rule:evenodd;stroke-width:4.9333334" id="path2" d="m 69.066667,37.000002 c 0,17.710171 -14.356493,32.066664 -32.066668,32.066664 -17.709926,0 -32.0666657,-14.356493 -32.0666657,-32.066664 0,-17.709928 14.3567397,-32.0666678 32.0666657,-32.0666678 17.710175,0 32.066668,14.3567398 32.066668,32.0666678 z m 4.933333,0 C 74,57.434359 57.43436,74 36.999999,74 16.565443,74 0,57.434359 0,37.000002 0,16.565443 16.565443,0 36.999999,0 57.43436,0 74,16.565443 74,37.000002 Z m -49.333333,8.616952 v -25.88362 c 1.836828,0 3.404888,0.89841 4.704624,2.69493 1.29944,1.796524 1.949308,3.959199 1.949308,6.487385 v 16.701305 c 0,1.330619 0.66526,1.995831 1.995877,1.995831 h 10.313579 c 1.33062,0 1.996322,-0.665212 1.996322,-1.995831 v -7.918345 c 0,-1.286416 -0.665702,-1.951528 -1.996322,-1.996272 h -1.99588 c -2.573174,-0.0894 -4.747052,-0.76067 -6.520634,-2.01566 -1.774717,-1.253908 -2.661728,-2.800014 -2.661728,-4.638173 h 11.178242 c 2.395477,0 4.435066,0.843154 6.121625,2.52843 1.685227,1.686412 2.528826,3.726 2.528826,6.121675 v 7.918345 c 0,2.395135 -0.843599,4.43566 -2.528826,6.121378 -1.686559,1.686216 -3.726148,2.528334 -6.121625,2.528334 H 33.316476 c -2.395181,0 -4.436002,-0.842118 -6.121327,-2.528334 -1.686412,-1.685718 -2.528482,-3.726243 -2.528482,-6.121378 z" inkscape:connector-curvature="0"/>
</svg>

<svg xmlns="http://www.w3.org/2000/svg" style="fill:none" height="74" width="74"><path style="clip-rule:evenodd;fill:#000;fill-rule:evenodd;stroke-width:4.9333334" d="M69.067 37c0 17.71-14.357 32.067-32.067 32.067S4.933 54.71 4.933 37 19.29 4.933 37 4.933 69.067 19.29 69.067 37zM74 37c0 20.434-16.566 37-37 37C16.565 74 0 57.434 0 37 0 16.565 16.565 0 37 0c20.434 0 37 16.565 37 37Zm-49.333 8.617V19.733c1.836 0 3.405.899 4.704 2.695 1.3 1.797 1.95 3.96 1.95 6.488v16.701c0 1.33.665 1.996 1.995 1.996H43.63c1.33 0 1.996-.665 1.996-1.996v-7.918c0-1.287-.665-1.952-1.996-1.997h-1.996c-2.573-.09-4.747-.76-6.52-2.015-1.775-1.254-2.662-2.8-2.662-4.638H43.63c2.396 0 4.435.843 6.122 2.528 1.685 1.686 2.529 3.726 2.529 6.122v7.918c0 2.395-.844 4.436-2.53 6.121-1.686 1.687-3.725 2.529-6.12 2.529H33.315c-2.395 0-4.436-.842-6.12-2.529-1.687-1.685-2.53-3.726-2.53-6.121z"/></svg>
